symbols/web/brightness_2/materialsymbolssharp/brightness_2_wght200gradN25_48px.svg

<svg xmlns="http://www.w3.org/2000/svg" height="48" width="48"><path d="M17.85 7.55q-.7 0-1.45.075t-1.3.125q3.05 3.45 4.675 7.6Q21.4 19.5 21.4 24t-1.625 8.65Q18.15 36.8 15.15 40.2q.5.1 1.225.175.725.075 1.525.075 6.8 0 11.6-4.775T34.3 24q0-6.9-4.825-11.675T17.85 7.55Zm.25-1.5q3.6 0 6.85 1.375 3.25 1.375 5.65 3.8 2.4 2.425 3.8 5.7 1.4 3.275 1.4 7.025 0 3.75-1.425 7.05t-3.8 5.75Q28.2 39.2 24.95 40.575t-6.9 1.375q-1.65 0-3.125-.275t-2.675-.725q3.65-3.35 5.65-7.725 2-4.375 2-9.225 0-4.75-2-9.175-2-4.425-5.65-7.775 1.15-.45 2.675-.725Q16.45 6.05 18.1 6.05ZM21.4 24Z"/></svg>

<svg xmlns="http://www.w3.org/2000/svg" height="48" width="48"><path d="M17.85 7.55Q17.15 7.55 16.4 7.625Q15.65 7.7 15.1 7.75Q18.15 11.2 19.775 15.35Q21.4 19.5 21.4 24Q21.4 28.5 19.775 32.65Q18.15 36.8 15.15 40.2Q15.65 40.3 16.375 40.375Q17.1 40.45 17.9 40.45Q24.7 40.45 29.5 35.675Q34.3 30.9 34.3 24Q34.3 17.1 29.475 12.325Q24.65 7.55 17.85 7.55ZM18.1 6.05Q21.7 6.05 24.95 7.425Q28.2 8.8 30.6 11.225Q33 13.65 34.4 16.925Q35.8 20.2 35.8 23.95Q35.8 27.7 34.375 31Q32.95 34.3 30.575 36.75Q28.2 39.2 24.95 40.575Q21.7 41.95 18.05 41.95Q16.4 41.95 14.925 41.675Q13.45 41.4 12.25 40.95Q15.9 37.6 17.9 33.225Q19.9 28.85 19.9 24Q19.9 19.25 17.9 14.825Q15.9 10.4 12.25 7.05Q13.4 6.6 14.925 6.325Q16.45 6.05 18.1 6.05ZM21.4 24Q21.4 24 21.4 24Q21.4 24 21.4 24Q21.4 24 21.4 24Q21.4 24 21.4 24Q21.4 24 21.4 24Q21.4 24 21.4 24Q21.4 24 21.4 24Q21.4 24 21.4 24Q21.4 24 21.4 24Q21.4 24 21.4 24Q21.4 24 21.4 24Q21.4 24 21.4 24Z"/></svg>
